X: 40883
T: Tribute To Pennou Skoulm
R: waltz
M: 3/4
K: Dminor
|:da ab a2|a>g fa g2|g>f ef g2|g>f ea gb|[M:2/4] af d2:|
|:[M:3/4] da ab a2|f>g af g2|e>f ga g2|ef ga gb|[M:2/4] af d2:|
|:[M:3/4] Ad fa g2|A>c eg f2|G>B df e2|GB df eg|[M:2/4] fe d2:|

